.local/share/icons/Gruvbox-Plus-Dark/panel/24/teams-tray-activity.svg

<svg xmlns="http://www.w3.org/2000/svg" width="24" height="24" version="1.1">
 <defs>
  <style id="current-color-scheme" type="text/css">
   .ColorScheme-Text { color:#ebdbb2; } .ColorScheme-Highlight { color:#458588; }
  </style>
 </defs>
 <circle style="fill:currentColor" class="ColorScheme-Highlight" cx="18" cy="18" r="2"/>
 <path style="fill:currentColor" class="ColorScheme-Text" d="M 5.0234375,4 C 4.4566955,4 4,4.4566955 4,5.0234375 V 17.976562 C 4,18.543305 4.4566955,19 5.0234375,19 H 15.173828 A 3,3 0 0 1 15,18 a 3,3 0 0 1 3,-3 3,3 0 0 1 1,0.175781 V 5.0234375 C 19,4.4566955 18.543305,4 17.976562,4 Z M 7,7 h 9 v 3 h -3 v 6 H 10 V 10 H 7 Z"/>
</svg>

<svg width="24" height="24" version="1.1" xmlns="http://www.w3.org/2000/svg">
  <defs>
    <style id="current-color-scheme" type="text/css">.ColorScheme-Text { color:#ebdbb2; } .ColorScheme-Highlight { color:#458588; } .ColorScheme-NeutralText { color:#fe8019; } .ColorScheme-PositiveText { color:#689d6a; } .ColorScheme-NegativeText { color:#fb4934; }</style>
  </defs>
  <circle class="ColorScheme-Highlight" cx="18" cy="18" r="2" fill="currentColor"/>
  <path class="ColorScheme-Text" d="m5.023 4c-0.5667 0-1.023 0.4567-1.023 1.023v12.95c0 0.5667 0.4567 1.023 1.023 1.023h10.15a3 3 0 0 1-0.1738-1 3 3 0 0 1 3-3 3 3 0 0 1 1 0.1758v-10.15c0-0.5667-0.4567-1.023-1.023-1.023zm1.977 3h9v3h-3v6h-3v-6h-3z" fill="currentColor"/>
</svg>
